X: 693
T: Ey Benim Bahtiyârım
C: Muhlis Sabahaddin Ezgi
O: Turkey
F: http://compmusic.upf.edu/node/140
N: kurdilihicazkar--sarki--curcuna--ey_benim--muhlis_sabahaddin_ezgi
N: makam= kurdilihicazkar
N: form= sarki
N: usul= curcuna = 10/8
M: 10/8
L: 1/16
K: C _B _e _A 
Q: 1/4=144
%%MIDI tuningsystem comma53
g6ag f2_2/4e2 f2g4z2  | f2e2 d2c2 d2B2 cAG4z2  | \
w:  ARANAĞME  |   | 
g6ag f2_2/4e2 f2g4z2  | 
w:  ARANAĞME  | 
f2e2 d2c2 d2B2 cAG4z2  | g6ag f2_2/4e2 f2g4z2  | \
w:   |  Ey  be *  *  nim  *  bah  | 
=a4 f2_2/4e2 d2d4z4z2  | 
w:  ti yâ *  *  rım   | 
b6b2 =a2_1/4a2 g2_1/4b2 c'2d'2  | \
w:  gön lüm *  de  *  tah  | 
c'2_1/4b2 _7/8a2a2 g2g4z4z2  | g6ag f2_2/4e2 f2g4z2  | 
w:  tı  *  *  yâ *  rim    |  Ey  be *  *  nim  *  bah  | 
=a4 f2_2/4e2 d2d4z4z2  | b6b2 =a2_1/4a2 g2_1/4b2 c'2d'2  | \
w:  ti yâ *  *  rım   |  gön lüm *  de  *  tah  | 
c'2_1/4b2 _7/8a2a2 g2g4z4z2  | 
w:  tı  *  *  yâ *  rim    | 
c6g3ed2 e2g2 f4  | e3d c2B2 d2c2 d2B2 A2G2  | \
w:  Yü zün *  de  *  göz   |  i *  *  zi  *  var   | 
d6ed c2B2 A2G2 A2B2  | 
w:  sa na  *  *  kim  *  bak  | 
e2d2 c2B2 A2G4g4z2  | c6g3ed2 e2g2 f4  | \
w:  tı  *  *  yâ *  rim   SAZ  |  Yü zün *  de  *  göz   | 
e3d c2B2 d2c2 d2B2 A2G2  | 
w:  i *  *  zi  *  var   | 
d6ed c2B2 A2G2 A2B2  | e2d2 c2B2 A2G4b6  | \
w:  sa na  *  *  kim  *  bak  |  tı  *  *  yâ *  rim   SAZ  | 
b6b2 =a2ba bc'd'6  | 
w:  Kal bin *  de  *  *  *  aşk   | 
c'2b2 _1/4a2g2 b2a2 g2f3_1/4ed2  | \
w:  i *  *  zi  *  var   | 
_1/4e2f2 g2c'2 _1/4b2_7/8a2 g2f2 e2f2  | \
w:  se *  *  ni  *  kim  *  yak  | 
g2=a2 f2_1/4e2 d2d4b6  | 
w:  tı  *  *  yâ *  rim   SAZ  | 
b6b2 =a2ba bc'd'6  | c'2b2 _1/4a2g2 b2a2 g2f3_1/4ed2  | \
w:  Kal bin *  de  *  *  *  aşk   |  i *  *  zi  *  var   | 
_1/4e2f2 g2c'2 _1/4b2_7/8a2 g2f2 e2f2  | 
w:  se *  *  ni  *  kim  *  yak  | 
g2=a2 f2_1/4e2 d2d4cd efg2  | c6g3ed2 e2g2 f4  | \
w:  tı  *  *  yâ *  rim   SAZ  |  Yü zün *  de  *  göz   | 
e3d c2B2 d2c2 d2B2 A2G2  | 
w:  i *  *  zi  *  var   | 
d6ed c2B2 A2G2 A2B2  | e2d2 c2B2 A2G4g4z2  | \
w:  sa na  *  *  kim  *  bak  |  tı  *  *  yâ *  rim   SAZ  | 
c6g3ed2 e2g2 f4  | 
w:  Yü zün *  de  *  göz   | 
e3d c2B2 d2c2 d2B2 A2G2  | d6ed c2B2 A2G2 A2B2  | \
w:  i *  *  zi  *  var   |  sa na  *  *  kim  *  bak  | 
e2d2 c2B2 A2G4|
w:  tı  *  *  yâ *  rim    | 


